X:70
T:Cuckoo Solo Continuo part 3
S:John Moore's Book 2
Z:Transcribed by Peter Kanssen 27-04-21
%%VWML: Moore1-4494-p53-0
F:http://www.vwml.org/record/Moore2/4494/p53
M:C|
K:A
L:1/16
ee'fe' ge'fe' |ee'fe' ge'fe' ee'fe' ge'fe' | ge'fe' ge'ee' ge'fe' ge'ee' | 
ge'fe' ge'ee' ge'fe' ge'ee' | ge'fe' ge'fe' ge'fe' ge'fe' | 
ge'fe' ge'ee' ge'fe' ge'fe' | ge'fe' ge'fe' ge'fe' ge'fe' | 
e'2d'c' b2b2 c'2c'2 g4 | a2gf f2a2 g2fe z2e2  | ceBe  AeBe  ceBe AeBe | ceBe AeBe ceBe ceBe | 

